!!!!SEGMENT: pl-kc--40102-iii-1-saf--002-029_zielenski-mikolaj--communiones-totius-anni-in-festo-dedicationis-ecclesiae-domus-mea.krn
!!!cenid: 16xx:1560
!!!COM: Zieleński, Mikołaj
!!!COM-rismID:
!!!CDT: <1611->1611
!!!CNT: Polish
!!!GTL: Communiones totius anni
!!!OTL: In festo Dedicationis Ecclesiae/Domus mea
!!!OMV: 029
!!!PDT: 1611
!!!AGN:
!!!SMS-siglum: PL-Kc
!!!SMS-shelfmark: 40102 III/1 Saf.
!!!SMS-shelfwork: 002-029 G
!!!SMS-variant:
!!!SMS-altvar:
!!!NIFC-rismSourceID: 990069887
!!!NIFC-islandoraID:
!!!URL-pdf-islandora:
!!!URL-scan: https://cyfrowe.mnk.pl/dlibra/publication/24235/edition/23926/content?ref=desc @EN{Scan on The National Museum in Krakow Website} @PL{Skany w portalu Biblioteka Cyfrowa Muzeum Narodowego w Krakowie}
!!!ONB-nifc: UWAGA: str. 58-59. Numer w źródle: 33. Uwaga: W xml metrum 2/1 do źródłowego C| i odpowiednio 3/1 do 3/2
!!!AIN: 4 organ
!!!key:
**kern	**kern	**kern	**kern
*part4	*part3	*part2	*part1
*staff4	*staff3	*staff2	*staff1
*I"	*I"	*I"	*I"Organo
*	*	*	*I'org
*Iorgan	*Iorgan	*Iorgan	*Iorgan
*ICklav	*ICklav	*ICklav	*ICklav
*clefF3	*clefC3	*clefC1	*clefG2
*k[b-]	*k[b-]	*k[b-]	*k[b-]
*g:	*g:	*g:	*g:
*M2/1	*M2/1	*M2/1	*M2/1
*met(C|)	*met(C|)	*met(C|)	*met(C|)
=1	=1	=1	=1
!	!	!	!LO:TX:b:t=Domus mea.
!	!	!	!LO:TX:a:t=33.  In feſto Dedicationis Eccleſiae  A  4.  Soli debent cantare hae quatuor voces organo ſine inſtrumentis.
00r	00r	1.dd	0r
.	.	2cc\	.
=2-	=2-	=2-	=2-
.	.	2b-\	1.dd
.	.	4a\	.
.	.	4g/	.
.	.	1a	.
.	.	.	2cc\
=3	=3	=3	=3
00r	1.g	1g	2b-/
.	.	.	4a/
.	.	.	4g/
.	.	2r	1a
.	2f\	1dd\	.
=4-	=4-	=4-	=4-
.	2e-X\	.	2.g/
.	4d\	2cc\	.
.	4c/	.	4g/
.	2d\	2b-\	2f#X/
.	4c/	4a\	[y2g/
.	4B-/	4g/	.
=5	=5	=5	=5
!	!	!	!LO:N:xstem:cue
1r	2c/	1a	4g/]
.	.	.	8f#X/
.	.	.	8e/
.	2d\	.	2f#/
1.G	4G/	2b-\	1g
.	4A/	.	.
.	4B-/	4g/	.
.	4c/	4a\	.
=6-	=6-	=6-	=6-
.	2d\	4b-\	1r
.	.	4cc\	.
2F/	2d\	2dd\	.
2E-X/	2e-X\	2g/	2r
4D/	2e-\	[y2cc\	[<2gg\
4C/	.	.	.
=7	=7	=7	=7
!	!	!LO:N:xstem:cue	!
1D	1d	4cc\]	2gg\]
!	!	!LO:N:acc=#	!
.	.	8bn\	.
.	.	8a\	.
.	.	2b\	2ff\
1C	2r	1cc	2ee-X\
.	2c/	.	4dd\
.	.	.	4cc\
=8-	=8-	=8-	=8-
1r	2c/	2.g/	1dd
!	!LO:N:acc=#	!	!
.	2Bn/	.	.
.	.	4f/	.
2r	2c/	4e-X/	1g
.	.	4d/	.
2C/	2G/	4e-/	.
.	.	4c/	.
=9	=9	=9	=9
2C/	1G	1d	2r
!LO:N:acc=#	!	!	!
2BBn/	.	.	2dd\
2C/	2G/	2r	2dd\
2E-X/	2G/	2g/	2cc\
=10-	=10-	=10-	=10-
1D	2B-/	2g/	2dd\
.	2A/	2f#X/	2a/
4GG/	1G	2g/	1b-
4AA/	.	.	.
4BB-y/	.	2d/	.
4GG/	.	.	.
=11	=11	=11	=11
2D/	2r	2f/	2a/
2BB-/	1F	4b-\	2dd\
.	.	4b-\	.
1.F	.	2b-\	2dd\
.	1f\	4a\	4cc\
.	.	4g\	4b-/
=12-	=12-	=12-	=12-
.	.	4a\	2cc\
.	.	2b-\	.
2F/	2c/	.	2cc\
.	.	4a\	.
1BB-	2d\	2b-\	2b-/
.	[2B-/	[<2b-\	[<2dd\
=13	=13	=13	=13
0r	2B-/]	2b-\]	2dd\]
.	2f\	2a\	2cc\
.	2g\	2g/	2b-/
.	2G/	2g/	2b-/
=14-	=14-	=14-	=14-
2r	2d\	2f#X/	1a
!	!LO:SIC:v:s=1f#	!	!
1D	1f	1a	.
.	.	.	1r
2D/	[y2d\	2f#/	.
=15	=15	=15	=15
!	!LO:N:xstem:cue	!	!
2G\	4d\]	2e/	1r
.	8c#X/	.	.
.	8B-/	.	.
2A\	2c#/	2e/	.
2D/	2d\	2d/	2r
1D/	1A/	1dd\	1ff\
=16-	=16-	=16-	=16-
.	.	.	.
2AA/	2A/	2cc\	2ee\
2BB-/	4F/	2b-\	2dd\
.	2B-/	.	.
2F/	.	2a\	2cc\
.	4A/	.	.
=17	=17	=17	=17
2G\	0d	2g/	2b-/
2GG/	.	2g/	2b-/
1D	.	2f#X/	2a/
.	.	4r	2dd\
.	.	4b-\	.
=18-	=18-	=18-	=18-
2r	2r	2a\	2cc\
2B-\	4r	2g/	2b-/
.	4d\	.	.
2A\	2c/	2r	2r
2G\	2B-/	4r	4r
.	.	4b-\	4dd\
=19	=19	=19	=19
2r	2r	2a\	2cc\
4r	4r	2g/	2b-/
4B-\	4d\	.	.
2A\	2c/	2r	2r
4G\	4B-/	4r	4r
!	!	!LO:N:acc=#	!
4G\	4G/	4bn\	4dd\
=20-	=20-	=20-	=20-
2E/	2G/	2cc#X\	2ee\
4D/	4A/	4dd\	4ff\
2D/	2A/	2dd\	2ff\
!	!	!LO:SIC:v:s=4ccny\	!
4AA/	4A/	4cc#y\	4ee\
2BB-/	2F/	2b-y\	2dd\
*custos:BB	*custos:f	*custos:b	*custos:dd
!!linebreak:original
=21	=21	=21	=21
2BB-/	2f\	2b-\	2dd\
2F/	2f\	2a\	2cc\
*lig	*	*	*
*col	*	*	*
1C	1.g	2g/	2.ee-X\
.	.	2.cc\	.
.	.	.	8dd\
.	.	.	8cc\
=22-	=22-	=22-	=22-
2.G\	.	.	2dd\
!	!	!LO:N:acc=#	!
.	.	8bn\	.
.	.	8a\	.
.	2g\	2b\	2dd\
*Xlig	*	*	*
*Xcol	*	*	*
4G\	.	.	.
1C	1e	4cc\	2cc\
.	.	4c/	.
.	.	4e/	4g/
.	.	4f#X/	4a/
=23	=23	=23	=23
2r	2r	2g/	1b-
4D/	4d\	1f	.
4E/	4G/	.	.
2F/	2A/	.	2a/
2BB-/	2B-/	4b-\	4dd\
.	.	4cc\	4ee\
=24-	=24-	=24-	=24-
2r	2r	2dd\	2ff\
4G\	4B-/	2b-\	2dd\
4A\	4c/	.	.
2B-\	2d\	2r	2r
[y2E-X/	[2G/	4g/	4ee-X\
.	.	4a\	4ff\
=25	=25	=25	=25
!LO:N:xstem:cue	!	!	!
4E-/]	2G/]	2b-\	2gg\
4D/	.	.	.
2C/	2g\	2.cc\	4ee-X\
.	.	.	4ee-\
*	*	*	*lig
2.D/	0f	.	1dd
.	.	4b-\	.
.	.	2.b-\	.
4E-y/	.	.	.
=26-	=26-	=26-	=26-
2F/	.	.	1cc
.	.	8a\	.
.	.	8g\	.
2F/	.	2a\	.
*	*	*	*Xlig
[y1BB-	1f	2b-\	2dd\
.	.	4dd\	4ff\
.	.	4dd\	4ff\
=27	=27	=27	=27
!LO:N:vis=4:xstem:cue	!	!	!
2BB-/]	2r	4.b-\	4.dd\
!	!	!	!LO:SIC:v:s=8ee-\
.	.	8cc\	8ee\
4B-\	4d\	2dd\	2ff\
4B-\	4d\	.	.
4.G\	4.B-/	1g	1b-
8A\	8c/	.	.
2B-\	2d\	.	.
=28-	=28-	=28-	=28-
2G\	1G	4b-\	4dd\
.	.	4b-\	4dd\
1GG	.	4.g/	4.b-/
.	.	8a\	8cc\
.	2G/	2b-\	2dd\
4G\	4d\	2g/	2b-/
4G\	4d\	.	.
=29	=29	=29	=29
2D/	2f\	2f/	2a/
1BB-	1d	4f/	4dd\
.	.	4f/	4dd\
.	.	4.d/	4.b-/
!	!	!LO:SIC:v:s=8e-/	!
.	.	8e/	8cc\
1BB-/	1B-/	2f/	2dd\
=30-	=30-	=30-	=30-
.	.	2d/	2b-/
4E-X/	4B-/	1e-X	1g
4E-/	4B-/	.	.
1C	[y1c	.	.
.	.	4g/	4gg\
.	.	4g/	4gg\
=31	=31	=31	=31
!	!LO:N:vis=4:xstem:cue	!	!
2C/	2c\]	4cc\	4ee-X\
.	.	4b-\	4dd\
2C/	2c/	4a\	4cc\
.	.	4g/	4b-/
1.D	4r	4f#X/	4a/
!	!LO:SIC:v:s=2F#/	!	!
.	2F/	4b-\	4dd\
.	.	4b-\	4dd\
.	4A/	2a\	4cc\
=32-	=32-	=32-	=32-
.	2D/	.	2.b-/
!	!	!LO:SIC:v:s=8gnX/	!
.	.	8g#X/	.
.	.	8fn#/	.
!	!	!LO:SIC:v:s=2.gn/	!
2D/	2.d\	2.g#/	.
.	.	.	8a/
.	.	.	8g/
1D	.	.	1a
.	4c/	8f#X/	.
.	.	8e/	.
.	2A/	2f#/	.
=33	=33	=33	=33
!	!	!	!LO:N:acc=#
1GG	1d	2g/	2bn/
.	.	2b-\	2dd\
2r	2r	2a\	2cc\
!	!	!	!LO:SIC:v:s=2b-y/
4r	4r	2g/	2bny/
4B-\	4d\	.	.
=34-	=34-	=34-	=34-
2A\	2c/	2r	2r
4G\	4B-/	4r	4r
!	!	!LO:N:acc=#	!
4G\	4G/	4bn\	4dd\
2E/	2G/	2cc\	2ee\
4D/	4A/	4dd\	4ff\
[4D/	[4A/	[<4dd\	[<4ff\
=35	=35	=35	=35
4D/]	4A/]	4dd\]	4ff\]
4AA/	4A/	4cc\	4ee\
2BB-/	2F/	2b-\	2dd\
2BB-/	2f\	2b-\	2dd\
2F/	2f\	2a\	2cc\
=36-	=36-	=36-	=36-
*lig	*	*	*
*col	*	*	*
1C	1.g	2g/	2.ee-X\
.	.	2.cc\	.
.	.	.	8dd\
.	.	.	8cc\
2.G\	.	.	2dd\
!	!	!LO:N:acc=#	!
.	.	8bn\	.
.	.	8a\	.
.	2g\	2b\	2dd\
*Xlig	*	*	*
*Xcol	*	*	*
4G\	.	.	.
=37	=37	=37	=37
1C	1e	4cc\	2cc\
.	.	4c/	.
.	.	4e/	4g/
.	.	4f#X/	4a/
2r	2r	2g/	1b-
!	!	!LO:SIC:v:s=1fny/	!
4D/	4d\	1f#y/	.
4E/	4G/	.	.
=38-	=38-	=38-	=38-
2F/	2A/	.	2a/
2BB-/	2B-/	4b-\	4dd\
.	.	4cc\	4ee\
2r	2r	2dd\	2ff\
4G\	4B-/	2b-\	2dd\
4A\	4c/	.	.
=39	=39	=39	=39
2B-\	2d\	2r	2r
2.E-X/	1G	4g/	4ee-X\
.	.	4a\	4ff\
.	.	2b-\	2gg\
4D/	.	.	.
2C/	2g\	[y2cc\	4ee-X\
.	.	.	4ee-\
=40-	=40-	=40-	=40-
*	*	*	*lig
!	!	!LO:N:xstem:cue	!
2.D/	0f	4cc\]	1dd
.	.	4b-\	.
.	.	2.b-\	.
4E-y/	.	.	.
2F/	.	.	1cc
.	.	8a\	.
.	.	8g\	.
2F/	.	2a\	.
*	*	*	*Xlig
*custos:BB	*custos:f	*custos:b	*custos:dd
!!pagebreak:original
=41	=41	=41	=41
1.BB-	1f	2b-\	2dd\
.	.	4dd\	4ff\
.	.	4dd\	4ff\
.	2r	4.b-\	4.dd\
!	!	!	!LO:SIC:v:s=8ee-\
.	.	8cc\	8ee\
4B-\	4d\	2dd\	2ff\
4B-\	4d\	.	.
=42-	=42-	=42-	=42-
4.G\	4.B-/	1g	1b-
8A\	8c/	.	.
2B-\	2d\	.	.
2G\	1G	4b-\	4dd\
.	.	4b-\	4dd\
[>2GG/	.	4.g/	4.b-/
.	.	8a\	8cc\
=43	=43	=43	=43
2GG/]	2G/	2b-\	2dd\
4G\	4d\	2g/	2b-/
4G\	4d\	.	.
2D/	2f\	2f/	2a/
1BB-/	1d\	4f/	4dd\
.	.	4f/	4dd\
=44-	=44-	=44-	=44-
.	.	4.d/	4.b-/
!	!	!LO:SIC:v:s=8e-/	!
.	.	8e/	8cc\
1BB-	1B-	2f/	2dd\
.	.	2d/	2b-/
4E-X/	4B-/	[2e-X/	[2g/
4E-/	4B-/	.	.
=45	=45	=45	=45
1C	1.c	2e-/]	2g/]
.	.	4g/	4gg\
.	.	4g/	4gg\
2C/	.	4cc\	4ee-X\
.	.	4b-\	4dd\
2C/	2c/	4a\	4cc\
.	.	4g/	4b-/
=46	=46	=46	=46
1.D	4r	4g#X/	4a/
!	!LO:SIC:v:s=2F#/	!	!
.	2F/	4b-\	4dd\
.	.	4b-\	4dd\
.	4A/	2a\	4cc\
.	2D/	.	2.b-/
.	.	8g#X/	.
.	.	8f/	.
2D/	[y2d\	[y2g#n/	.
.	.	.	8a/
.	.	.	8g/
=47	=47	=47	=47
!	!LO:N:xstem:cue	!LO:N:xstem:cue	!
1D	4d\]	4g#/]	1a
.	4c/	8f#X/	.
.	.	8e/	.
.	2A/	2f#/	.
!	!	!	!LO:N:acc=#
2GG/	2d\	2gny/	2bn/
2C/	2e-X\	1g\	2cc\
=48-	=48-	=48-	=48-
2C/	2e-yX\	.	2cc\
!LO:N:acc=#	!	!	!
2BBn/	2d\	2g/	2dd\
1C	4c/	2.cc\	2.ee-X\
.	4d\	.	.
.	4e-X\	.	.
.	4f\	4dd\	4dd\
=49	=49	=49	=49
0C	0g	2ee-X\	4cc\
.	.	.	4g/
.	.	2.ee-\	2.gg\
.	.	4dd\	4ff\
.	.	1cc\	2ee-X\
=50-	=50-	=50-	=50-
0GGl	0gl	.	0ddl
!	!	!LO:N:acc=#	!
.	.	4bn\	.
.	.	4a\	.
!	!	!LO:N:acc=#	!
.	.	1bnl	.
==	==	==	==
*-	*-	*-	*-
!!!system-decoration: [s1,s2,s3,s4]
!!!RDF**kern: l = terminal long
!!!RDF**kern: > = above
!!!RDF**kern: < = below
!!!ENC: Katarzyna Serwa
!!!END: 2021-12-25
!!!ENC: Filip Voros
!!!END: 2021-12-20
